web/packages/design/src/ResourceIcon/assets/goldcast.svg

<svg width="72" height="72" viewBox="0 0 72 72" fill="none" xmlns="http://www.w3.org/2000/svg">
<g clip-path="url(#clip0_15941_7453)">
<path fill-rule="evenodd" clip-rule="evenodd" d="M51.5031 36.0005C51.5031 18.6008 37.3997 4.4974 20 4.4974V0.000488281C39.8833 0.000488281 56 16.1172 56 36.0005C56 55.8838 39.8833 72.0005 20 72.0005V67.5036C37.3997 67.5036 51.5031 53.4001 51.5031 36.0005Z" fill="#FF4C00"/>
<path fill-rule="evenodd" clip-rule="evenodd" d="M38.001 36.0003C38.001 26.0588 29.9416 17.9994 20 17.9994V13.5024C32.4252 13.5024 42.4979 23.5752 42.4979 36.0003C42.4979 48.4248 32.4257 58.502 20 58.502V54.005C29.941 54.005 38.001 45.9425 38.001 36.0003Z" fill="#FF4C00"/>
</g>
<defs>
<clipPath id="clip0_15941_7453">
<rect width="72" height="72" fill="white" transform="translate(0 0.000488281)"/>
</clipPath>
</defs>
</svg>

<svg xmlns="http://www.w3.org/2000/svg" width="72" height="72" fill="none" viewBox="0 0 72 72"><g fill="#ff4c00" fill-rule="evenodd" clip-path="url(#clip0_15941_7453)" clip-rule="evenodd"><path d="M51.503 36C51.503 18.6 37.4 4.498 20 4.498V0c19.883 0 36 16.117 36 36 0 19.884-16.117 36-36 36v-4.496C37.4 67.504 51.503 53.4 51.503 36"/><path d="M38.001 36c0-9.941-8.06-18-18.001-18v-4.498c12.425 0 22.498 10.073 22.498 22.498S32.426 58.502 20 58.502v-4.497c9.941 0 18.001-8.062 18.001-18.005"/></g><defs><clipPath id="clip0_15941_7453"><path fill="#fff" d="M0 0h72v72H0z"/></clipPath></defs></svg>
